svg/flat/paypal.svg

<svg height="471" viewBox="0 0 750 471" width="750" xmlns="http://www.w3.org/2000/svg"><g fill="none"><path d="m697.115385 0h-644.2307696c-29.1605769 0-52.8846154 23.1955749-52.8846154 51.7065868v367.5868262c0 28.511012 23.7240385 51.706587 52.8846154 51.706587h644.2307696c29.158653 0 52.884615-23.195575 52.884615-51.706587v-367.5868262c0-28.5110119-23.725962-51.7065868-52.884615-51.7065868z" fill="#fff"/><g transform="translate(54 150)"><path d="m109.272795 8.45777679c-8.024045-5.51623215-18.4947593-8.28103572-31.4121432-8.28103572h-50.009125c-3.9599554 0-6.1477232 1.98045536-6.5633036 5.93658929l-20.31566963 127.52489264c-.21113393 1.252473.10222322 2.397947.93720536 3.439286.83020536 1.04325 1.87441071 1.562009 3.12497321 1.562009h23.75399996c4.1663125 0 6.4563036-1.975679 6.8766608-5.937545l5.6251428-34.3794819c.2054018-1.6661429.9381607-3.0208393 2.1887232-4.0640893 1.2496072-1.0413393 2.8125715-1.7225089 4.6879375-2.0349107 1.8753661-.3095357 3.6437322-.465259 5.3136965-.465259 1.6651875 0 3.6437321.1050893 5.9394553.3124018 2.2899911.2082679 3.7497768.3095357 4.3755357.3095357 17.9186786 0 31.9834465-5.0490625 42.1952591-15.1576964 10.207036-10.1048125 15.316286-24.1170357 15.316286-42.0395357 0-12.2925804-4.014411-21.2003304-12.034634-26.72516071zm-25.7850896 38.29071431c-1.0451608 7.2941518-3.7507322 12.0843125-8.1262679 14.3771696-4.3764911 2.2957232-10.6273929 3.4364197-18.7527054 3.4364197l-10.314991.3133571 5.3146518-33.4441875c.414625-2.2899911 1.768366-3.4364196 4.0621785-3.4364196h5.9404107c8.3307143 0 14.3771697 1.2008839 18.1279018 3.5930982 3.7488215 2.3979464 4.999384 7.4536964 3.7488215 15.1605625z" fill="#003087"/><path d="m637.026411.17674107h-23.127286c-2.297634 0-3.65042 1.14642857-4.063134 3.43833036l-20.31758 130.02315157-.313357.624804c0 1.047071.417491 2.032044 1.252473 2.970205.82925.93625 1.875366 1.40533 3.124018 1.40533h20.630937c3.953268 0 6.141991-1.975678 6.564259-5.937544l20.31567-127.83825014v-.31049107c-.000956-2.91670536-1.359473-4.37553572-4.066-4.37553572z" fill="#009cde"/><path d="m357.599732 50.4973125c0-1.0394286-.419402-2.0310893-1.247696-2.9673393-.835938-.9372053-1.775054-1.4081964-2.813527-1.4081964h-24.067357c-2.296679 0-4.171089 1.0470714-5.626098 3.1249732l-33.130831 48.7614286-13.751411-46.8841518c-1.046116-3.3322857-3.337062-5.00225-6.87666-5.00225h-23.444465c-1.044205 0-1.982366.4700357-2.81066 1.4081964-.835938.93625-1.250563 1.9288661-1.250563 2.9673393 0 .4203571 2.032045 6.5642589 6.094223 18.4412589 4.062179 11.8789107 8.43867 24.6940715 13.127563 38.4483486 4.688893 13.750455 7.134607 21.047473 7.344786 21.875768-17.087518 23.339375-25.629366 35.842133-25.629366 37.506366 0 2.711303 1.353741 4.064089 4.063134 4.064089h24.067357c2.291901 0 4.166312-1.039429 5.626098-3.124018l79.70258-115.0240446c.414625-.414625.622893-1.1406965.622893-2.1877679z" fill="#003087"/><path d="m581.704545 46.1217768h-23.755911c-2.918616 0-4.685072 3.4383303-5.309875 10.3149911-5.423563-8.3307143-15.31533-12.5037143-29.695366-12.5037143-15.002929 0-27.768411 5.6270535-38.287848 16.87925-10.524215 11.2531518-15.783456 24.4867589-15.783456 39.6960444 0 12.296402 3.593098 22.088813 10.781206 29.379143 7.189062 7.297973 16.82575 10.939795 28.914839 10.939795 6.040723 0 12.187491-1.252473 18.438393-3.750732 6.251857-2.50017 11.144241-5.832456 14.692437-10.001634 0 .209223-.212089 1.145473-.625759 2.811616-.420357 1.669964-.625759 2.922437-.625759 3.750732 0 3.338018 1.350875 5.000339 4.06409 5.000339h21.568143c3.953267 0 6.248991-1.975678 6.872839-5.937544l12.816116-81.5769916c.205402-1.2505625-.107-2.3950803-.938161-3.4383303-.835937-1.040384-1.875366-1.5629643-3.125928-1.5629643zm-40.788018 61.5746782c-5.313697 5.209563-11.720322 7.812911-19.221786 7.812911-6.0455 0-10.937884-1.664232-14.690527-5.000339-3.751687-3.328464-5.627053-7.913223-5.627053-13.7523663 0-7.7049553 2.604303-14.2204911 7.814821-19.5341875 5.20383-5.3136964 11.668732-7.9705446 19.37942-7.9705446 5.828634 0 10.674205 1.7196428 14.532893 5.1570178 3.852 3.4383304 5.783732 8.1807232 5.783732 14.2233572-.000956 7.5005089-2.658759 13.8574554-7.9715 19.0641514z" fill="#009cde"/><path d="m226.639375 46.1217768h-23.754c-2.921482 0-4.688893 3.4383303-5.314652 10.3149911-5.626098-8.3307143-15.524553-12.5037143-29.693455-12.5037143-15.002929 0-27.767455 5.6270535-38.288804 16.87925-10.524214 11.2531518-15.783455 24.4867589-15.783455 39.6960444 0 12.296402 3.595009 22.088813 10.784071 29.379143 7.189063 7.297973 16.82384 10.939795 28.911018 10.939795 5.8315 0 11.877956-1.252473 18.127902-3.750732 6.250902-2.50017 11.252196-5.832456 15.002929-10.001634-.835938 2.500169-1.250563 4.688893-1.250563 6.562348 0 3.338018 1.353741 5.000339 4.063134 5.000339h21.566232c3.956134 0 6.250902-1.975678 6.876661-5.937544l12.814205-81.5769916c.205402-1.2505625-.107-2.3950803-.937205-3.4383303-.834027-1.040384-1.874411-1.5629643-3.124018-1.5629643zm-40.788973 61.7294462c-5.314652 5.111161-11.829232 7.658143-19.534188 7.658143-6.046455 0-10.891071-1.664232-14.534803-5.000339-3.648509-3.328464-5.470375-7.913223-5.470375-13.7523663 0-7.7049553 2.603348-14.2204911 7.814821-19.5341875 5.205741-5.3136964 11.665866-7.9705446 19.378464-7.9705446 5.8315 0 10.676116 1.7196428 14.534804 5.1570178 3.852 3.4383304 5.781821 8.1807232 5.781821 14.2233572 0 7.7097321-2.656848 14.1192234-7.970544 19.2189194z" fill="#003087"/><path d="m464.337964 8.45777679c-8.023089-5.51623215-18.491893-8.28103572-31.411187-8.28103572h-49.696723c-4.170134 0-6.462992 1.98045536-6.876661 5.93658929l-20.31567 127.52393764c-.211134 1.252473.101268 2.397946.937206 3.439286.827339 1.04325 1.87441 1.562009 3.124973 1.562009h25.62841c2.50017 0 4.166313-1.352786 5.001295-4.062179l5.627054-36.2548483c.206357-1.6661428.93625-3.0208393 2.187768-4.0640893 1.250562-1.0413393 2.811616-1.7225089 4.688892-2.0349107 1.874411-.3095357 3.642777-.4652589 5.313697-.4652589 1.665187 0 3.643732.1050893 5.936589.3124018 2.291902.2082678 3.754554.3095357 4.375536.3095357 17.921544 0 31.984402-5.0490625 42.196214-15.1576964 10.209902-10.1048125 15.31533-24.1170358 15.31533-42.0395358.000956-12.291625-4.0125-21.199375-12.032723-26.72420531zm-32.036946 51.41732141c-4.584759 3.1249732-11.46142 4.6869822-20.628072 4.6869822l-10.002589.3133571 5.314652-33.4441875c.412714-2.2899911 1.766455-3.4364196 4.062178-3.4364196h5.624188c4.582848 0 8.229446.2082678 10.942661.6238482 2.704616.4203571 5.312741 1.7186875 7.81291 3.9064553 2.502081 2.1887232 3.750733 5.3671965 3.750733 9.5344643 0 8.7510714-2.294768 14.6886161-6.876661 17.8155z" fill="#009cde"/></g></g></svg>

<svg width="750" height="471" viewBox="0 0 750 471" version="1.1" xmlns="http://www.w3.org/2000/svg" xmlns:xlink="http://www.w3.org/1999/xlink">
    <!-- Generator: Sketch 48.2 (47327) - http://www.bohemiancoding.com/sketch -->
    <desc>Created with Sketch.</desc>
    <defs></defs>
    <g id="Page-1" stroke="none" stroke-width="1" fill="none" fill-rule="evenodd">
        <g id="paypal" fill-rule="nonzero">
            <path d="M697.115385,0 L52.8846154,0 C23.7240385,0 0,23.1955749 0,51.7065868 L0,419.293413 C0,447.804425 23.7240385,471 52.8846154,471 L697.115385,471 C726.274038,471 750,447.804425 750,419.293413 L750,51.7065868 C750,23.1955749 726.274038,0 697.115385,0 Z" id="Shape" fill="#FFFFFF"></path>
            <g id="Group" transform="translate(54.000000, 150.000000)">
                <path d="M109.272795,8.45777679 C101.24875,2.94154464 90.7780357,0.176741071 77.8606518,0.176741071 L27.8515268,0.176741071 C23.8915714,0.176741071 21.7038036,2.15719643 21.2882232,6.11333036 L0.972553571,133.638223 C0.761419643,134.890696 1.07477679,136.03617 1.90975893,137.077509 C2.73996429,138.120759 3.78416964,138.639518 5.03473214,138.639518 L28.7887321,138.639518 C32.9550446,138.639518 35.2450357,136.663839 35.6653929,132.701973 L41.2905357,98.3224911 C41.4959375,96.6563482 42.2286964,95.3016518 43.4792589,94.2584018 C44.7288661,93.2170625 46.2918304,92.5358929 48.1671964,92.2234911 C50.0425625,91.9139554 51.8109286,91.7582321 53.4808929,91.7582321 C55.1460804,91.7582321 57.124625,91.8633214 59.4203482,92.0706339 C61.7103393,92.2789018 63.170125,92.3801696 63.7958839,92.3801696 C81.7145625,92.3801696 95.7793304,87.3311071 105.991143,77.2224732 C116.198179,67.1176607 121.307429,53.1054375 121.307429,35.1829375 C121.307429,22.8903571 117.293018,13.9826071 109.272795,8.45777679 Z M83.4877054,46.7484911 C82.4425446,54.0426429 79.7369732,58.8328036 75.3614375,61.1256607 C70.9849464,63.4213839 64.7340446,64.5620804 56.6087321,64.5620804 L46.2937411,64.8754375 L51.6083929,31.43125 C52.0230179,29.1412589 53.3767589,27.9948304 55.6705714,27.9948304 L61.6109821,27.9948304 C69.9416964,27.9948304 75.9881518,29.1957143 79.7388839,31.5879286 C83.4877054,33.985875 84.7382679,39.041625 83.4877054,46.7484911 Z" id="Shape" fill="#003087"></path>
                <path d="M637.026411,0.176741071 L613.899125,0.176741071 C611.601491,0.176741071 610.248705,1.32316964 609.835991,3.61507143 L589.518411,133.638223 L589.205054,134.263027 C589.205054,135.310098 589.622545,136.295071 590.457527,137.233232 C591.286777,138.169482 592.332893,138.638562 593.581545,138.638562 L614.212482,138.638562 C618.16575,138.638562 620.354473,136.662884 620.776741,132.701018 L641.092411,4.86276786 L641.092411,4.55227679 C641.091455,1.63557143 639.732938,0.176741071 637.026411,0.176741071 Z" id="Shape" fill="#009CDE"></path>
                <path d="M357.599732,50.4973125 C357.599732,49.4578839 357.18033,48.4662232 356.352036,47.5299732 C355.516098,46.5927679 354.576982,46.1217768 353.538509,46.1217768 L329.471152,46.1217768 C327.174473,46.1217768 325.300063,47.1688482 323.845054,49.24675 L290.714223,98.0081786 L276.962812,51.1240268 C275.916696,47.7917411 273.62575,46.1217768 270.086152,46.1217768 L246.641687,46.1217768 C245.597482,46.1217768 244.659321,46.5918125 243.831027,47.5299732 C242.995089,48.4662232 242.580464,49.4588393 242.580464,50.4973125 C242.580464,50.9176696 244.612509,57.0615714 248.674687,68.9385714 C252.736866,80.8174821 257.113357,93.6326429 261.80225,107.38692 C266.491143,121.137375 268.936857,128.434393 269.147036,129.262688 C252.059518,152.602063 243.51767,165.104821 243.51767,166.769054 C243.51767,169.480357 244.871411,170.833143 247.580804,170.833143 L271.648161,170.833143 C273.940062,170.833143 275.814473,169.793714 277.274259,167.709125 L356.976839,52.6850804 C357.391464,52.2704554 357.599732,51.5443839 357.599732,50.4973125 Z" id="Shape" fill="#003087"></path>
                <path d="M581.704545,46.1217768 L557.948634,46.1217768 C555.030018,46.1217768 553.263562,49.5601071 552.638759,56.4367679 C547.215196,48.1060536 537.323429,43.9330536 522.943393,43.9330536 C507.940464,43.9330536 495.174982,49.5601071 484.655545,60.8123036 C474.13133,72.0654554 468.872089,85.2990625 468.872089,100.508348 C468.872089,112.80475 472.465187,122.597161 479.653295,129.887491 C486.842357,137.185464 496.479045,140.827286 508.568134,140.827286 C514.608857,140.827286 520.755625,139.574813 527.006527,137.076554 C533.258384,134.576384 538.150768,131.244098 541.698964,127.07492 C541.698964,127.284143 541.486875,128.220393 541.073205,129.886536 C540.652848,131.5565 540.447446,132.808973 540.447446,133.637268 C540.447446,136.975286 541.798321,138.637607 544.511536,138.637607 L566.079679,138.637607 C570.032946,138.637607 572.32867,136.661929 572.952518,132.700063 L585.768634,51.1230714 C585.974036,49.8725089 585.661634,48.7279911 584.830473,47.6847411 C583.994536,46.6443571 582.955107,46.1217768 581.704545,46.1217768 Z M540.916527,107.696455 C535.60283,112.906018 529.196205,115.509366 521.694741,115.509366 C515.649241,115.509366 510.756857,113.845134 507.004214,110.509027 C503.252527,107.180563 501.377161,102.595804 501.377161,96.7566607 C501.377161,89.0517054 503.981464,82.5361696 509.191982,77.2224732 C514.395812,71.9087768 520.860714,69.2519286 528.571402,69.2519286 C534.400036,69.2519286 539.245607,70.9715714 543.104295,74.4089464 C546.956295,77.8472768 548.888027,82.5896696 548.888027,88.6323036 C548.887071,96.1328125 546.229268,102.489759 540.916527,107.696455 Z" id="Shape" fill="#009CDE"></path>
                <path d="M226.639375,46.1217768 L202.885375,46.1217768 C199.963893,46.1217768 198.196482,49.5601071 197.570723,56.4367679 C191.944625,48.1060536 182.04617,43.9330536 167.877268,43.9330536 C152.874339,43.9330536 140.109813,49.5601071 129.588464,60.8123036 C119.06425,72.0654554 113.805009,85.2990625 113.805009,100.508348 C113.805009,112.80475 117.400018,122.597161 124.58908,129.887491 C131.778143,137.185464 141.41292,140.827286 153.500098,140.827286 C159.331598,140.827286 165.378054,139.574813 171.628,137.076554 C177.878902,134.576384 182.880196,131.244098 186.630929,127.07492 C185.794991,129.575089 185.380366,131.763813 185.380366,133.637268 C185.380366,136.975286 186.734107,138.637607 189.4435,138.637607 L211.009732,138.637607 C214.965866,138.637607 217.260634,136.661929 217.886393,132.700063 L230.700598,51.1230714 C230.906,49.8725089 230.593598,48.7279911 229.763393,47.6847411 C228.929366,46.6443571 227.888982,46.1217768 226.639375,46.1217768 Z M185.850402,107.851223 C180.53575,112.962384 174.02117,115.509366 166.316214,115.509366 C160.269759,115.509366 155.425143,113.845134 151.781411,110.509027 C148.132902,107.180563 146.311036,102.595804 146.311036,96.7566607 C146.311036,89.0517054 148.914384,82.5361696 154.125857,77.2224732 C159.331598,71.9087768 165.791723,69.2519286 173.504321,69.2519286 C179.335821,69.2519286 184.180437,70.9715714 188.039125,74.4089464 C191.891125,77.8472768 193.820946,82.5896696 193.820946,88.6323036 C193.820946,96.3420357 191.164098,102.751527 185.850402,107.851223 Z" id="Shape" fill="#003087"></path>
                <path d="M464.337964,8.45777679 C456.314875,2.94154464 445.846071,0.176741071 432.926777,0.176741071 L383.230054,0.176741071 C379.05992,0.176741071 376.767062,2.15719643 376.353393,6.11333036 L356.037723,133.637268 C355.826589,134.889741 356.138991,136.035214 356.974929,137.076554 C357.802268,138.119804 358.849339,138.638563 360.099902,138.638563 L385.728312,138.638563 C388.228482,138.638563 389.894625,137.285777 390.729607,134.576384 L396.356661,98.3215357 C396.563018,96.6553929 397.292911,95.3006964 398.544429,94.2574464 C399.794991,93.2161071 401.356045,92.5349375 403.233321,92.2225357 C405.107732,91.913 406.876098,91.7572768 408.547018,91.7572768 C410.212205,91.7572768 412.19075,91.8623661 414.483607,92.0696786 C416.775509,92.2779464 418.238161,92.3792143 418.859143,92.3792143 C436.780687,92.3792143 450.843545,87.3301518 461.055357,77.2215179 C471.265259,67.1167054 476.370687,53.1044821 476.370687,35.1819821 C476.371643,22.8903571 472.358187,13.9826071 464.337964,8.45777679 Z M432.301018,59.8750982 C427.716259,63.0000714 420.839598,64.5620804 411.672946,64.5620804 L401.670357,64.8754375 L406.985009,31.43125 C407.397723,29.1412589 408.751464,27.9948304 411.047187,27.9948304 L416.671375,27.9948304 C421.254223,27.9948304 424.900821,28.2030982 427.614036,28.6186786 C430.318652,29.0390357 432.926777,30.3373661 435.426946,32.5251339 C437.929027,34.7138571 439.177679,37.8923304 439.177679,42.0595982 C439.177679,50.8106696 436.882911,56.7482143 432.301018,59.8750982 Z" id="Shape" fill="#009CDE"></path>
            </g>
        </g>
    </g>
</svg>
